src/24/actions/edit-table-insert-row-below.svg

<svg xmlns="http://www.w3.org/2000/svg" viewBox="0 0 24 24"><path d="M4 4v16h1V10h2v4h1v-4h2v4h1v-4h2v10h1V10h2v4h1v-4h2v4h1V4H4zm1 1h2v4H5V5zm3 0h2v4H8V5zm3 0h2v4h-2V5zm3 0h2v4h-2V5zm3 0h2v4h-2V5zm-2 10l2.5 5 2.5-5h-5z" fill="currentColor" color="#5d656b"/><path d="M5 14v1h4.293l-4 4H5v1h8v-1h-2.293L13 16.707v-1.414L9.293 19H6.707l4-4H13v-1H5z" fill="currentColor" color="#3daee9"/></svg>

<svg xmlns="http://www.w3.org/2000/svg" viewBox="0 0 24 24">
  <defs id="defs3051">
    <style type="text/css" id="current-color-scheme">
      .ColorScheme-Text {
        color:#5d656b;
      }
      .ColorScheme-Highlight {
        color:#3daee9;
      }
      </style>
  </defs>
 <path 
     style="fill:currentColor;fill-opacity:1;stroke:none" 
     d="M 4 4 L 4 14 L 4 20 L 5 20 L 5 14 L 5 10 L 6 10 L 7 10 L 7 14 L 8 14 L 8 10 L 10 10 L 10 14 L 11 14 L 11 10 L 13 10 L 13 14 L 13 20 L 14 20 L 14 14 L 14 10 L 16 10 L 16 14 L 17 14 L 17 10 L 19 10 L 19 14 L 20 14 L 20 5 L 20 4 L 5 4 L 4 4 z M 5 5 L 7 5 L 7 8 L 7 9 L 6 9 L 5 9 L 5 5 z M 8 5 L 10 5 L 10 9 L 8 9 L 8 8 L 8 5 z M 11 5 L 13 5 L 13 9 L 11 9 L 11 5 z M 14 5 L 16 5 L 16 8 L 16 9 L 14 9 L 14 5 z M 17 5 L 19 5 L 19 9 L 18.099609 9 L 17 9 L 17 8 L 17 5 z M 15 15 L 17.5 20 L 20 15 L 15 15 z "
     class="ColorScheme-Text"
     />
 <path 
     style="fill:currentColor;fill-opacity:1;stroke:none" 
     d="M 5 14 L 5 15 L 9.2929688 15 L 5.2929688 19 L 5 19 L 5 20 L 13 20 L 13 19 L 10.707031 19 L 13 16.707031 L 13 15.292969 L 9.2929688 19 L 6.7070312 19 L 10.707031 15 L 13 15 L 13 14 L 10.292969 14 L 5 14 z "
     class="ColorScheme-Highlight"
     />
</svg>
